X: 454
T:Jacob
T:Enrico
M:4/4
L:1/8
Q:1/4=90
S:Mobberley session
R:English reel
N:Posted to the woodenflute mailing list November 2001
Z:Steve Mansfield January 2001
K:D
A2 | d2 fe dcdB | ABAG F2 A2 |
d2 ef gfgf | e2 a2 a2 A2 |
d2 fe dcdB | ABAG F2 A2 |
B2 gf edec | d2 d2 d2 ::
fg | a2 ag fgfe | dedc B2 B2 |
gagf efed | cdcB A2 (3ABc |
d2 d2 cecA | d2 d2 cecA |
d2 f2 edec | d2 d2 d2 :|

